packages/IcoMoon/src/MicIcon/index.svg

<svg version="1.1" xmlns="http://www.w3.org/2000/svg" width="16" height="16" viewBox="0 0 16 16">
<path d="M7.5 11c1.381 0 2.5-1.119 2.5-2.5v-6c0-1.381-1.119-2.5-2.5-2.5s-2.5 1.119-2.5 2.5v6c0 1.381 1.119 2.5 2.5 2.5zM11 7v1.5c0 1.933-1.567 3.5-3.5 3.5s-3.5-1.567-3.5-3.5v-1.5h-1v1.5c0 2.316 1.75 4.223 4 4.472v2.028h-2v1h5v-1h-2v-2.028c2.25-0.249 4-2.156 4-4.472v-1.5h-1z"></path>
</svg>

<svg xmlns="http://www.w3.org/2000/svg" viewBox="0 0 16 16">
  <path d="M7.5 11A2.5 2.5 0 0010 8.5v-6a2.5 2.5 0 10-5 0v6A2.5 2.5 0 007.5 11zM11 7v1.5a3.5 3.5 0 11-7 0V7H3v1.5a4.5 4.5 0 004 4.472V15H5v1h5v-1H8v-2.028A4.5 4.5 0 0012 8.5V7h-1z"/>
</svg>
